X:1
T:Title
%%score 1 { ( 2 4 ) | ( 3 5 6 ) }
L:1/8
M:4/4
K:G
V:1 treble nm="Akkordion"
V:2 treble nm="Grand Piano"
V:4 treble 
V:3 treble 
V:5 treble 
V:6 treble 
V:1
 z8[Q:1/4=86] | z8 | z8 | z8 |[M:3/4] z6 |[M:1/4] B,>B, |[M:4/4] E2 F2 G2 FG | A2 c2 B3 B, | %8
 E2 FG A2 GA | B2 F2 B3 B | e2 BG E2 FG | B2 A2 B3 A | G2 FE G2 FE |[M:3/4] F2 F2 B2 |[M:1/4] B2 | %15
[M:4/4] e3 B B2 e2 | e3 A A2 e2 | d2 AB dcBA | B6 B2 |[M:9/8] A2 G- G F2- FF>F | %20
[M:4/4] G2 A2 B2 B2 | e3 B B2 EF | G6 F2 | E8- |[M:3/4] E6 |] %25
V:2
 z4 z2 z B | e2 B2 d2 A_B | [^DFB]2 .[DA]2 [B,EG]2 E-[EF] | [EG]2- [CE-G-][A,E-G-] [EG]2 F2 | %4
[M:3/4][K:bass] [E,G,B,E]6 |[M:1/4] z2 |[M:4/4][K:treble] [B,EG]8 | [CE]2 [EA]2 [^DFB]4 | %8
 [B,EG]4 [CE]4 | [^DF]2 [_B,EF]2 [=B,DF]3 [FAB] | [EGB]2 [EG]2 E2- [E-F][EG] | [GB]2 A2 B3 A | %12
 G2 FG, E2- [EF]E |[M:3/4] [B,^DF]2 [_B,EF]2 [=B,DFB]2 |[M:1/4] [^DAB]2 | %15
[M:4/4] [Ge]3 [GB] [GB]2 [Ge]2 | [CEe]3 [CEA] [CEA]2 [CEe]2 | d2 AB dcBA | [DGB]6 [DGB]2 | %19
[M:9/8] [CFA]2 [B,EG]- [B,EG] [_B,EF]2- [B,EF][^DF]>[DF] |[M:4/4] [B,EG]2 [DFA]2 [DGB]2 .[^DAB]2 | %21
 [Ge]3 [GB] [GB]2 z F | [EG-]4 G2 F2 | E8- |[M:3/4] E6 |] %25
V:3
 z8 | [EGB]2 [DF]2 [CFA]2 z2 | B,2 z B, E,2 z A, | z4 z2 ^D2 |[M:3/4] E,,6 |[M:1/4] B,,>B,, | %6
[M:4/4] E,2 F,2 G,2 F,G, | A,2 C2 B,3 B,, | E,2 F,G, A,2 G,A, | B,2 F,2 B,,3 B, | z2 B,G, z2 A,B, | %11
 z2[K:treble] F2 [G,DG]3[K:bass] [F,B,^D] | B,2 .A,2 z2 A,_B, |[M:3/4] B,,2 ^C,2 B,,2 | %14
[M:1/4] B,2 |[M:4/4] [E,B,E]3 [E,E] [E,E]2 [E,B,]2 | [A,,A,]3 [A,,A,] [A,,A,]2 [A,,A,]2 | %17
 A,2[K:treble] CB, A,ED[DF] | G,6 z2 | %19
[M:9/8] [A,,,A,,]2 [B,,,B,,]- [B,,,B,,] [C,,C,]2- [C,,C,][B,,B,]>[B,,B,] | %20
[M:4/4] E,2 D,2 G,2 z B, | [E,B,]3 [E,E] [E,E]2 G,G, | z4 A,4 | [E,G,B,]8- |[M:3/4] [E,G,B,]6 |] %25
V:4
 x8 | x8 | z4 z2 .G,2 | B,2 z2 B,4 |[M:3/4][K:bass] x6 |[M:1/4] x2 |[M:4/4][K:treble] x8 | x8 | %8
 x8 | x8 | z4 G,2 z2 | x8 | z4 [CG]2 z2 |[M:3/4] x6 |[M:1/4] x2 |[M:4/4] x8 | x8 | F8 | x8 | %19
[M:9/8] x9 |[M:4/4] x8 | z4 z2 E2 | B,2 z2 ^D4 | x8 |[M:3/4] x6 |] %25
V:5
 x8 | x8 | z2 B,,2 z2 E,2 | E,2 C,2 z2 z A, |[M:3/4] x6 |[M:1/4] x2 |[M:4/4] x8 | x8 | x8 | x8 | %10
 E,4 E,4 | [D,D]4[K:treble] z4[K:bass] | [E,E]4 C,4 |[M:3/4] x6 |[M:1/4] x2 |[M:4/4] x8 | x8 | %17
 D,8[K:treble] | G,,8 |[M:9/8] x9 |[M:4/4] z4 z2 F,2 | z4 z2 E,2 | z2 _B,2 z2 B,,2 | x8 | %24
[M:3/4] x6 |] %25
V:6
 x8 | x8 | x8 | z4 B,,4 |[M:3/4] x6 |[M:1/4] x2 |[M:4/4] x8 | x8 | x8 | x8 | x8 | %11
 x2[K:treble] x5[K:bass] x | x8 |[M:3/4] x6 |[M:1/4] x2 |[M:4/4] x8 | x8 | x2[K:treble] x6 | x8 | %19
[M:9/8] x9 |[M:4/4] x8 | x8 | B,,6 z2 | x8 |[M:3/4] x6 |] %25

